X: 34
T:Eighth of January
M:4/4
L:1/8
Q:90
C:American
R:Reel
K:D
de|:"D"fefa fedf|"G"efed B2 Bd|"A"efed Bdef|"D"edBA d2 de|!
"D"fefa fedf|"G"efed B2 Bd|"A"efed BABc|[1"D"dBAF D2 de:|[2"D"dBAFD2 DE|
|!
"D"FA2 FA2 AF|ABAG FEDE|FA2FA2AF|"A"ABAF "D"(3EFE D2 DE|!
FA2 FA2 AF|ABAG FEDE|FABA FEDB,|[1"A"A,B,DE "D"D2 DE:|[2"A" A,B,DE "D"D4
|]
